X:32
T:Belle Savage. WCD3/6.032, La
A: England; London
O:
M:C|
L:1/8
Z:vmp.Peter Dunk.2011.from a transcription by Paul Dennant
B:John Walsh Jr. The Compleat Country Dancing Master.Vol 6 1756
Q:1/2=80
K:G
c|BGAF G3 c|BGAF G3 c|BGAF GEDC|B,GA,F G3:|
c|(B/c/d) DF G3 c|(B/c/d) DF G3 c|B/c/d Dc (B/c/d) Dc|
B/c/d Dc (B/c/d) Dc|BGcF GEDC|B,GA,F [G3 G,3]|]

